X: 9698
T: December 2
R: reel
M: 4/4
K: Bminor
fa|bfae f2ed|cAeA fAa2|BF (3FFF Bcde|fedf e2fa|
bfae f2ed|cAeA fAa2|BF (3FFF BcdB|cBAc B2:|
dc|BF (3FFF Bcde|cA (3AAA cdec|BF (3FFF Bcde|fedf e2dc|
BF (3FFF Bcde|cA (3AAA cdec|BF (3FFF BcdB|cBAc B2dc|
BF (3FFF Bcde|cA (3AAA cdec|BF (3FFF Bcde|fedf e2fa|
bfae f2ed|cAeA fAa2|BF (3FFF BcdB|cBAc B2||

